client/public/img/game/shared/weapons/aug.svg

<?xml version="1.0" encoding="UTF-8" standalone="no"?>
<svg
   width="124.039"
   height="110"
   viewBox="0 0 124.039 110"
   fill="none"
   version="1.1"
   id="svg23"
   sodipodi:docname="aug.svg"
   inkscape:version="1.4 (86a8ad7, 2024-10-11)"
   xmlns:inkscape="http://www.inkscape.org/namespaces/inkscape"
   xmlns:sodipodi="http://sodipodi.sourceforge.net/DTD/sodipodi-0.dtd"
   xmlns="http://www.w3.org/2000/svg"
   xmlns:svg="http://www.w3.org/2000/svg">
  <sodipodi:namedview
     id="namedview23"
     pagecolor="#ffffff"
     bordercolor="#000000"
     borderopacity="0.25"
     inkscape:showpageshadow="2"
     inkscape:pageopacity="0.0"
     inkscape:pagecheckerboard="0"
     inkscape:deskcolor="#d1d1d1"
     inkscape:zoom="3.6681818"
     inkscape:cx="35.439901"
     inkscape:cy="83.011152"
     inkscape:window-width="1920"
     inkscape:window-height="1009"
     inkscape:window-x="-8"
     inkscape:window-y="-8"
     inkscape:window-maximized="1"
     inkscape:current-layer="svg23" />
  <g
     clip-path="url(#clip0_619_1196)"
     id="g23"
     transform="rotate(30,56.449414,60.012518)">
    <path
       d="m 85.4788,33.9789 -1.0921,0.6305 1.0891,1.8864 1.0921,-0.6305 z"
       fill="#55554d"
       stroke="#363630"
       stroke-width="1.40303"
       stroke-miterlimit="3.99393"
       stroke-linecap="round"
       id="path1" />
    <path
       d="m 83.1656,35.3164 2.3071,-1.3321 c 0,0 1.0147,-0.596 0.0794,-2.16 -0.9354,-1.564 -4.6069,1.4913 -4.6069,1.4913 z"
       fill="#55554d"
       stroke="#363630"
       stroke-width="1.40303"
       stroke-miterlimit="3.99393"
       stroke-linecap="round"
       id="path2" />
    <path
       d="M 74.8653,28.7238 74.196,27.8872 c -0.2192,-0.2745 -0.1682,-0.6806 0.1136,-0.9081 l 0.7663,-0.6125 c 0.1326,-0.107 0.2929,-0.1732 0.4607,-0.1911 l 4.1887,-0.4722 c 0.4262,-0.0476 0.8045,0.2463 0.8579,0.665 l 0.1805,1.4247 z"
       fill="#464640"
       stroke="#353530"
       stroke-width="1.40303"
       stroke-miterlimit="3.99393"
       stroke-linecap="round"
       id="path3" />
    <path
       d="m 83.165,35.3164 c 0,0 -2.077,1.4034 -3.4799,2.3177 0.3601,-0.2571 0.5812,-0.3828 0.5812,-0.3828 l -0.7287,-1.2621 -17.1013,9.8754 c -1.1634,0.6717 -2.6512,0.2731 -3.3229,-0.8903 L 56.645,40.6989 40.2953,50.1384 c -1.265,-0.0623 -3.4523,-0.0441 -4.7133,0.6839 l 38.858,-22.4347 6.2372,-0.93 c 0,0 1.3965,1.8648 -0.1509,2.0433 -0.2013,0.0231 -0.3104,0.2481 -0.1959,0.4149 0.6402,0.9264 2.1674,3.2524 2.7577,5.127 0.0291,0.0926 0.0558,0.1845 0.0769,0.2736 z"
       fill="#55554d"
       stroke="#363630"
       stroke-width="1.40303"
       stroke-miterlimit="3.99393"
       stroke-linecap="round"
       id="path4" />
    <path
       d="m 63.8468,47.4942 1.1395,-0.6579 c 0.0293,0.9458 0.3406,2.1237 1.4138,3.1933 0.0408,0.0404 0.0648,0.0904 0.0729,0.1419 0.0057,0.037 0.0032,0.0748 -0.0072,0.1105 -0.0174,0.0593 -0.0565,0.113 -0.1163,0.1475 l -2.5146,1.4518 c -0.057,-0.0908 -0.1015,-0.1687 -0.1334,-0.2274 -0.0405,-0.0745 -0.0608,-0.1181 -0.0608,-0.1181 -1.3013,-2.2539 0.0067,-3.8292 0.1701,-4.0127 0.0111,-0.0125 0.0223,-0.021 0.036,-0.0289 z"
       fill="#4b4b44"
       stroke="#363630"
       stroke-width="0.701513"
       stroke-miterlimit="3.99393"
       id="path5" />
    <path
       d="m 88.1478,23.6276 -8.7455,5.0492 1.9879,3.4431 8.7455,-5.0492 z"
       fill="#4b4b44"
       stroke="#363630"
       stroke-width="1.40303"
       stroke-miterlimit="3.99393"
       stroke-linecap="round"
       id="path6" />
    <path
       d="m 29.1992,76.1135 2.9015,0.4937 2.5807,-5.7021 z"
       fill="#55554d"
       stroke="#363630"
       stroke-width="1.40303"
       stroke-miterlimit="3.99393"
       stroke-linecap="round"
       id="path7" />
    <path
       d="m 35.5784,73.6968 c 0,0 8.6426,10.5272 10.4519,11.781 0,0 0.978,0.9258 1.282,1.7223 0.3039,0.7966 1.6162,0.0389 1.6162,0.0389 l 6.5481,-6.6945 c 0,0 1.4928,-0.5116 -0.8959,-2.3584 C 52.192,76.3392 45.6874,68.57 44.744,66.4659 L 41.6438,65.607 35.145,71.3801 Z"
       fill="#484841"
       stroke="#363630"
       stroke-width="1.40303"
       stroke-miterlimit="3.99393"
       stroke-linecap="round"
       id="path8" />
    <path
       d="m 83.355,37.7221 4.7267,-2.729 c 0,0 2.6401,5.3691 4.2726,6.9093 1.6324,1.5402 2.578,4.4653 2.578,4.4653 0,0 1.2618,2.0418 2.0133,2.2701 0.7516,0.2283 -1.6919,2.2992 -1.6919,2.2992 0,0 -3.2173,2.5197 -4.3634,0.5346 -1.146,-1.9851 -3.2289,-5.9505 -4.0628,-8.612 -0.8339,-2.6614 -3.2065,-3.9789 -3.2065,-3.9789 0,0 -1.3291,-0.5448 -0.266,-1.1586 z"
       fill="#6e6e4a"
       stroke="#3d3d28"
       stroke-width="1.40303"
       stroke-miterlimit="3.99393"
       stroke-linecap="round"
       id="path9" />
    <path
       d="m 62.435,45.8634 c -1.1634,0.6717 -2.6512,0.2731 -3.3229,-0.8903 L 56.6437,40.6977 3.96275,71.1131 c -4.83143,2.7894 -0.43379,6.8987 -0.43379,6.8987 l 16.74124,16.5125 7.3585,-4.2485 c 2.1537,-1.2434 0.1805,-2.5707 0.1805,-2.5707 -2.5452,-0.6305 -0.8044,-3.5189 -0.8044,-3.5189 0,0 4.3572,-8.8581 5.8425,-10.8558 1.4878,-1.997 2.4935,0.1876 2.6654,0.3303 0.1719,0.1426 8.5698,-7.4225 8.7919,-7.6276 0.2221,-0.2051 1.1431,-1.5348 0.4924,-2.8197 -0.6483,-1.2842 0.5384,-2.3399 0.5384,-2.3399 0,0 1.8131,-1.9318 5.1429,-4.9053 2.4133,-2.1547 4.2898,-1.6686 4.2898,-1.6686 0,0 1.5878,0.8876 1.2023,4.9517 -0.5282,5.5742 3.2146,11.2361 3.6169,11.6944 0.4023,0.4583 1.6531,-0.1708 6.8096,-3.0567 5.1573,-2.8844 5.5123,-6.1594 5.5123,-6.1594 0,0 1.2497,-7.3516 2.0431,-14.3466 0.7934,-6.995 6.3126,-10.1329 6.3126,-10.1329 L 79.5362,35.988 Z m 9.5053,1.9036 -2.1513,13.4472 c -0.019,0.1653 0.0227,1.7264 -2.6429,3.2654 -2.7992,1.6161 -2.9483,-0.6206 -2.9483,-0.6206 0,0 -0.7319,-7.2727 -0.9027,-8.8873 -0.1494,-1.4163 0.4822,-1.7324 0.6399,-1.789 0.0299,-0.0112 0.0575,-0.0231 0.0849,-0.0389 l 0.4116,-0.2376 c 0.082,-0.0474 0.0987,-0.1623 0.0303,-0.2281 -0.55,-0.5492 -0.8252,-1.1416 -0.8252,-1.1416 -1.3013,-2.2539 0.05,-3.9514 0.2453,-4.0642 l 4.4596,-2.5748 c 0.3995,-0.2306 0.8676,-0.3247 1.3226,-0.2451 2.9325,0.5122 2.3106,2.9813 2.2762,3.1146 z"
       fill="#6e6e4a"
       id="path10" />
    <path
       d="m 71.9394,47.7655 9e-4,0.0015 m 0,0 -2.1513,13.4472 c -0.019,0.1653 0.0227,1.7264 -2.6429,3.2654 -2.7992,1.6161 -2.9483,-0.6206 -2.9483,-0.6206 0,0 -0.7319,-7.2727 -0.9027,-8.8873 -0.1494,-1.4163 0.4822,-1.7324 0.6399,-1.789 0.0299,-0.0112 0.0575,-0.0231 0.0849,-0.0389 l 0.4116,-0.2376 c 0.082,-0.0474 0.0987,-0.1623 0.0303,-0.2281 -0.55,-0.5492 -0.8252,-1.1416 -0.8252,-1.1416 -1.3013,-2.2539 0.05,-3.9514 0.2453,-4.0642 l 4.4596,-2.5748 c 0.3995,-0.2306 0.8676,-0.3247 1.3226,-0.2451 2.9325,0.5122 2.3106,2.9813 2.2762,3.1146 z M 62.435,45.8634 c -1.1634,0.6717 -2.6512,0.2731 -3.3229,-0.8903 L 56.6437,40.6977 3.96275,71.1131 c -4.83143,2.7894 -0.43379,6.8987 -0.43379,6.8987 l 16.74124,16.5125 7.3585,-4.2485 c 2.1537,-1.2434 0.1805,-2.5707 0.1805,-2.5707 -2.5452,-0.6305 -0.8044,-3.5189 -0.8044,-3.5189 0,0 4.3572,-8.8581 5.8425,-10.8558 1.4878,-1.997 2.4935,0.1876 2.6654,0.3303 0.1719,0.1426 8.5698,-7.4225 8.7919,-7.6276 0.2221,-0.2051 1.1431,-1.5348 0.4924,-2.8197 -0.6483,-1.2842 0.5384,-2.3399 0.5384,-2.3399 0,0 1.8131,-1.9318 5.1429,-4.9053 2.4133,-2.1547 4.2898,-1.6686 4.2898,-1.6686 0,0 1.5878,0.8876 1.2023,4.9517 -0.5282,5.5742 3.2146,11.2361 3.6169,11.6944 0.4023,0.4583 1.6531,-0.1708 6.8096,-3.0567 5.1573,-2.8844 5.5123,-6.1594 5.5123,-6.1594 0,0 1.2497,-7.3516 2.0431,-14.3466 0.7934,-6.995 6.3126,-10.1329 6.3126,-10.1329 L 79.5362,35.988 Z"
       stroke="#3d3d28"
       stroke-width="1.40303"
       stroke-miterlimit="3.99393"
       stroke-linecap="round"
       id="path11" />
    <path
       d="M 2.18945,76.2812 2.54021,76.8888 27.0193,62.7557 26.6686,62.1482 Z"
       fill="#4f4f35"
       id="path12" />
    <path
       d="M 4.63281,79.502 4.98356,80.1095 42.5916,58.3965 42.2408,57.789 Z"
       fill="#4f4f35"
       id="path13" />
    <path
       d="m 36.6778,54.3597 -10.7807,6.2242 c -0.2215,0.1279 -0.2974,0.411 -0.1695,0.6325 l 0.8137,1.4094 c 0.1279,0.2215 0.4111,0.2974 0.6325,0.1695 L 37.9545,56.571 c 0.2215,-0.1278 0.2974,-0.411 0.1695,-0.6324 l -0.8137,-1.4095 c -0.1279,-0.2214 -0.4111,-0.2973 -0.6325,-0.1694 z"
       fill="#464640"
       stroke="#353530"
       stroke-width="0.701513"
       stroke-miterlimit="3.99393"
       stroke-linecap="round"
       id="path14" />
    <path
       d="m 71.1452,35.047 -9.0569,5.2289 c -0.7197,0.4156 -0.9663,1.3359 -0.5508,2.0556 0.4155,0.7197 1.3367,0.9677 2.0564,0.5522 l 9.0569,-5.229 c 0.7197,-0.4155 0.9654,-1.3373 0.5499,-2.057 -0.4155,-0.7197 -1.3358,-0.9663 -2.0555,-0.5507 z"
       fill="#464640"
       stroke="#353530"
       stroke-width="0.701513"
       stroke-miterlimit="3.99393"
       stroke-linecap="round"
       id="path15" />
    <path
       d="m 88.9535,26.5045 -7.8676,4.5424 1.2978,2.2478 7.8676,-4.5424 z"
       fill="#505049"
       stroke="#363630"
       stroke-width="1.40303"
       stroke-miterlimit="3.99393"
       stroke-linecap="round"
       id="path16" />
    <path
       d="m 41.6641,57.4883 2.705,-1.5618 0.7822,1.3548 c 0.2403,0.4161 0.0977,0.948 -0.3184,1.1883 l -1.2333,0.712 c -0.3964,0.2289 -0.9043,0.0928 -1.1332,-0.3036 z"
       fill="#464640"
       stroke="#353530"
       stroke-width="0.701513"
       stroke-miterlimit="3.99393"
       stroke-linecap="round"
       id="path17" />
    <path
       d="m 103.293,15.6689 -14.8067,8.5489 1.3417,2.3237 14.807,-8.5489 z"
       fill="#46463f"
       stroke="#363630"
       stroke-width="1.40303"
       stroke-miterlimit="3.99393"
       stroke-linecap="round"
       id="path18" />
    <path
       d="m 100.175,16.8367 -0.9936,0.5735 c -0.1401,0.0809 -0.1881,0.26 -0.1072,0.4001 l 1.5098,2.6154 c 0.081,0.14 0.26,0.188 0.4,0.1072 l 0.994,-0.5735 c 0.14,-0.0809 0.188,-0.26 0.107,-0.4001 l -1.51,-2.6154 c -0.081,-0.1401 -0.26,-0.1881 -0.4,-0.1072 z"
       fill="#46463f"
       stroke="#363630"
       stroke-width="1.40303"
       stroke-miterlimit="3.99393"
       stroke-linecap="round"
       id="path19" />
    <path
       d="m 106.129,13.3991 -3.814,2.2019 c -0.267,0.154 -0.358,0.4951 -0.204,0.7619 l 1.245,2.1567 c 0.154,0.2667 0.495,0.3581 0.762,0.2041 l 3.814,-2.2019 c 0.266,-0.154 0.358,-0.4951 0.204,-0.7619 l -1.245,-2.1566 c -0.154,-0.2668 -0.495,-0.3582 -0.762,-0.2042 z"
       fill="#46463f"
       stroke="#363630"
       stroke-width="1.40303"
       stroke-miterlimit="3.99393"
       stroke-linecap="round"
       id="path20" />
    <path
       d="m 91.7196,27.9047 -1.4687,0.848 -1.2978,-2.2478 1.2728,-0.7349 c 0,0 0.6557,-0.0849 1.1775,0.8188 0.5217,0.9037 0.3162,1.3159 0.3162,1.3159 z"
       fill="#97978c"
       stroke="#363630"
       stroke-width="1.40303"
       stroke-miterlimit="3.99393"
       stroke-linecap="round"
       id="path21" />
    <path
       d="M 1.75424,73.376 C 1.6769,73.2526 1.5966,73.1977 1.58093,73.3424 1.47641,74.2978 1.01037,76.8755 3.57019,79.3484 6.7081,82.3807 17.5235,92.4848 18.9109,94.446 c 0.1194,0.1295 0.7836,0.7363 2.2948,-0.1362 L 21.4305,94.18 c 0.0896,-0.0517 0.105,-0.176 0.0276,-0.2468 C 19.6973,92.297 3.81042,76.6217 1.75424,73.376 Z"
       fill="#464640"
       stroke="#353530"
       stroke-width="1.40303"
       stroke-miterlimit="3.99393"
       stroke-linecap="round"
       id="path22" />
    <path
       d="m 71.5897,28.8768 -36.8182,21.257 0.4998,0.8657 36.8182,-21.257 z"
       fill="#464640"
       stroke="#353530"
       stroke-width="0.701513"
       stroke-miterlimit="3.99393"
       stroke-linecap="round"
       id="path23" />
  </g>
  <defs
     id="defs23">
    <clipPath
       id="clip0_619_1196">
      <rect
         width="110"
         height="110"
         fill="#ffffff"
         id="rect23"
         x="0"
         y="0" />
    </clipPath>
  </defs>
</svg>

<svg width="110" height="110" viewBox="0 0 110 110" fill="none" xmlns="http://www.w3.org/2000/svg">
<g clip-path="url(#clip0_619_1196)">
<path d="M85.4788 33.9789L84.3867 34.6094L85.4758 36.4958L86.5679 35.8653L85.4788 33.9789Z" fill="#55554D" stroke="#363630" stroke-width="1.40303" stroke-miterlimit="3.99393" stroke-linecap="round"/>
<path d="M83.1656 35.3164L85.4727 33.9843C85.4727 33.9843 86.4874 33.3883 85.5521 31.8243C84.6167 30.2603 80.9452 33.3156 80.9452 33.3156L83.1656 35.3164Z" fill="#55554D" stroke="#363630" stroke-width="1.40303" stroke-miterlimit="3.99393" stroke-linecap="round"/>
<path d="M74.8653 28.7238L74.196 27.8872C73.9768 27.6127 74.0278 27.2066 74.3096 26.9791L75.0759 26.3666C75.2085 26.2596 75.3688 26.1934 75.5366 26.1755L79.7253 25.7033C80.1515 25.6557 80.5298 25.9496 80.5832 26.3683L80.7637 27.793L74.8653 28.7238Z" fill="#464640" stroke="#353530" stroke-width="1.40303" stroke-miterlimit="3.99393" stroke-linecap="round"/>
<path d="M83.165 35.3164C83.165 35.3164 81.088 36.7198 79.6851 37.6341C80.0452 37.377 80.2663 37.2513 80.2663 37.2513L79.5376 35.9892L62.4363 45.8646C61.2729 46.5363 59.7851 46.1377 59.1134 44.9743L56.645 40.6989L40.2953 50.1384C39.0303 50.0761 36.843 50.0943 35.582 50.8223L74.44 28.3876L80.6772 27.4576C80.6772 27.4576 82.0737 29.3224 80.5263 29.5009C80.325 29.524 80.2159 29.749 80.3304 29.9158C80.9706 30.8422 82.4978 33.1682 83.0881 35.0428C83.1172 35.1354 83.1439 35.2273 83.165 35.3164Z" fill="#55554D" stroke="#363630" stroke-width="1.40303" stroke-miterlimit="3.99393" stroke-linecap="round"/>
<path d="M63.8468 47.4942L64.9863 46.8363C65.0156 47.7821 65.3269 48.96 66.4001 50.0296C66.4409 50.07 66.4649 50.12 66.473 50.1715C66.4787 50.2085 66.4762 50.2463 66.4658 50.282C66.4484 50.3413 66.4093 50.395 66.3495 50.4295L63.8349 51.8813C63.7779 51.7905 63.7334 51.7126 63.7015 51.6539C63.661 51.5794 63.6407 51.5358 63.6407 51.5358C62.3394 49.2819 63.6474 47.7066 63.8108 47.5231C63.8219 47.5106 63.8331 47.5021 63.8468 47.4942Z" fill="#4B4B44" stroke="#363630" stroke-width="0.701513" stroke-miterlimit="3.99393"/>
<path d="M88.1478 23.6276L79.4023 28.6768L81.3902 32.1199L90.1357 27.0707L88.1478 23.6276Z" fill="#4B4B44" stroke="#363630" stroke-width="1.40303" stroke-miterlimit="3.99393" stroke-linecap="round"/>
<path d="M29.1992 76.1135L32.1007 76.6072L34.6814 70.9051L29.1992 76.1135Z" fill="#55554D" stroke="#363630" stroke-width="1.40303" stroke-miterlimit="3.99393" stroke-linecap="round"/>
<path d="M35.5784 73.6968C35.5784 73.6968 44.221 84.224 46.0303 85.4778C46.0303 85.4778 47.0083 86.4036 47.3123 87.2001C47.6162 87.9967 48.9285 87.239 48.9285 87.239L55.4766 80.5445C55.4766 80.5445 56.9694 80.0329 54.5807 78.1861C52.192 76.3392 45.6874 68.57 44.744 66.4659L41.6438 65.607L35.145 71.3801L35.5784 73.6968Z" fill="#484841" stroke="#363630" stroke-width="1.40303" stroke-miterlimit="3.99393" stroke-linecap="round"/>
<path d="M83.355 37.7221L88.0817 34.9931C88.0817 34.9931 90.7218 40.3622 92.3543 41.9024C93.9867 43.4426 94.9323 46.3677 94.9323 46.3677C94.9323 46.3677 96.1941 48.4095 96.9456 48.6378C97.6972 48.8661 95.2537 50.937 95.2537 50.937C95.2537 50.937 92.0364 53.4567 90.8903 51.4716C89.7443 49.4865 87.6614 45.5211 86.8275 42.8596C85.9936 40.1982 83.621 38.8807 83.621 38.8807C83.621 38.8807 82.2919 38.3359 83.355 37.7221Z" fill="#6E6E4A" stroke="#3D3D28" stroke-width="1.40303" stroke-miterlimit="3.99393" stroke-linecap="round"/>
<path d="M62.435 45.8634C61.2716 46.5351 59.7838 46.1365 59.1121 44.9731L56.6437 40.6977L3.96275 71.1131C-0.86868 73.9025 3.52896 78.0118 3.52896 78.0118L20.2702 94.5243L27.6287 90.2758C29.7824 89.0324 27.8092 87.7051 27.8092 87.7051C25.264 87.0746 27.0048 84.1862 27.0048 84.1862C27.0048 84.1862 31.362 75.3281 32.8473 73.3304C34.3351 71.3334 35.3408 73.518 35.5127 73.6607C35.6846 73.8033 44.0825 66.2382 44.3046 66.0331C44.5267 65.828 45.4477 64.4983 44.797 63.2134C44.1487 61.9292 45.3354 60.8735 45.3354 60.8735C45.3354 60.8735 47.1485 58.9417 50.4783 55.9682C52.8916 53.8135 54.7681 54.2996 54.7681 54.2996C54.7681 54.2996 56.3559 55.1872 55.9704 59.2513C55.4422 64.8255 59.185 70.4874 59.5873 70.9457C59.9896 71.404 61.2404 70.7749 66.3969 67.889C71.5542 65.0046 71.9092 61.7296 71.9092 61.7296C71.9092 61.7296 73.1589 54.378 73.9523 47.383C74.7457 40.388 80.2649 37.2501 80.2649 37.2501L79.5362 35.988L62.435 45.8634ZM71.9403 47.767L69.789 61.2142C69.77 61.3795 69.8117 62.9406 67.1461 64.4796C64.3469 66.0957 64.1978 63.859 64.1978 63.859C64.1978 63.859 63.4659 56.5863 63.2951 54.9717C63.1457 53.5554 63.7773 53.2393 63.935 53.1827C63.9649 53.1715 63.9925 53.1596 64.0199 53.1438L64.4315 52.9062C64.5135 52.8588 64.5302 52.7439 64.4618 52.6781C63.9118 52.1289 63.6366 51.5365 63.6366 51.5365C62.3353 49.2826 63.6866 47.5851 63.8819 47.4723L68.3415 44.8975C68.741 44.6669 69.2091 44.5728 69.6641 44.6524C72.5966 45.1646 71.9747 47.6337 71.9403 47.767Z" fill="#6E6E4A"/>
<path d="M71.9394 47.7655L71.9403 47.767M71.9403 47.767L69.789 61.2142C69.77 61.3795 69.8117 62.9406 67.1461 64.4796C64.3469 66.0957 64.1978 63.859 64.1978 63.859C64.1978 63.859 63.4659 56.5863 63.2951 54.9717C63.1457 53.5554 63.7773 53.2393 63.935 53.1827C63.9649 53.1715 63.9925 53.1596 64.0199 53.1438L64.4315 52.9062C64.5135 52.8588 64.5302 52.7439 64.4618 52.6781C63.9118 52.1289 63.6366 51.5365 63.6366 51.5365C62.3353 49.2826 63.6866 47.5851 63.8819 47.4723L68.3415 44.8975C68.741 44.6669 69.2091 44.5728 69.6641 44.6524C72.5966 45.1646 71.9747 47.6337 71.9403 47.767ZM62.435 45.8634C61.2716 46.5351 59.7838 46.1365 59.1121 44.9731L56.6437 40.6977L3.96275 71.1131C-0.86868 73.9025 3.52896 78.0118 3.52896 78.0118L20.2702 94.5243L27.6287 90.2758C29.7824 89.0324 27.8092 87.7051 27.8092 87.7051C25.264 87.0746 27.0048 84.1862 27.0048 84.1862C27.0048 84.1862 31.362 75.3281 32.8473 73.3304C34.3351 71.3334 35.3408 73.518 35.5127 73.6607C35.6846 73.8033 44.0825 66.2382 44.3046 66.0331C44.5267 65.828 45.4477 64.4983 44.797 63.2134C44.1487 61.9292 45.3354 60.8735 45.3354 60.8735C45.3354 60.8735 47.1485 58.9417 50.4783 55.9682C52.8916 53.8135 54.7681 54.2996 54.7681 54.2996C54.7681 54.2996 56.3559 55.1872 55.9704 59.2513C55.4422 64.8255 59.185 70.4874 59.5873 70.9457C59.9896 71.404 61.2404 70.7749 66.3969 67.889C71.5542 65.0046 71.9092 61.7296 71.9092 61.7296C71.9092 61.7296 73.1589 54.378 73.9523 47.383C74.7457 40.388 80.2649 37.2501 80.2649 37.2501L79.5362 35.988L62.435 45.8634Z" stroke="#3D3D28" stroke-width="1.40303" stroke-miterlimit="3.99393" stroke-linecap="round"/>
<path d="M2.18945 76.2812L2.54021 76.8888L27.0193 62.7557L26.6686 62.1482L2.18945 76.2812Z" fill="#4F4F35"/>
<path d="M4.63281 79.502L4.98356 80.1095L42.5916 58.3965L42.2408 57.789L4.63281 79.502Z" fill="#4F4F35"/>
<path d="M36.6778 54.3597L25.8971 60.5839C25.6756 60.7118 25.5997 60.9949 25.7276 61.2164L26.5413 62.6258C26.6692 62.8473 26.9524 62.9232 27.1738 62.7953L37.9545 56.571C38.176 56.4432 38.2519 56.16 38.124 55.9386L37.3103 54.5291C37.1824 54.3077 36.8992 54.2318 36.6778 54.3597Z" fill="#464640" stroke="#353530" stroke-width="0.701513" stroke-miterlimit="3.99393" stroke-linecap="round"/>
<path d="M71.1452 35.047L62.0883 40.2759C61.3686 40.6915 61.122 41.6118 61.5375 42.3315C61.953 43.0512 62.8742 43.2992 63.5939 42.8837L72.6508 37.6547C73.3705 37.2392 73.6162 36.3174 73.2007 35.5977C72.7852 34.878 71.8649 34.6314 71.1452 35.047Z" fill="#464640" stroke="#353530" stroke-width="0.701513" stroke-miterlimit="3.99393" stroke-linecap="round"/>
<path d="M88.9535 26.5045L81.0859 31.0469L82.3837 33.2947L90.2513 28.7523L88.9535 26.5045Z" fill="#505049" stroke="#363630" stroke-width="1.40303" stroke-miterlimit="3.99393" stroke-linecap="round"/>
<path d="M41.6641 57.4883L44.3691 55.9265L45.1513 57.2813C45.3916 57.6974 45.249 58.2293 44.8329 58.4696L43.5996 59.1816C43.2032 59.4105 42.6953 59.2744 42.4664 58.878L41.6641 57.4883Z" fill="#464640" stroke="#353530" stroke-width="0.701513" stroke-miterlimit="3.99393" stroke-linecap="round"/>
<path d="M103.293 15.6689L88.4863 24.2178L89.828 26.5415L104.635 17.9926L103.293 15.6689Z" fill="#46463F" stroke="#363630" stroke-width="1.40303" stroke-miterlimit="3.99393" stroke-linecap="round"/>
<path d="M100.175 16.8367L99.1814 17.4102C99.0413 17.4911 98.9933 17.6702 99.0742 17.8103L100.584 20.4257C100.665 20.5657 100.844 20.6137 100.984 20.5329L101.978 19.9594C102.118 19.8785 102.166 19.6994 102.085 19.5593L100.575 16.9439C100.494 16.8038 100.315 16.7558 100.175 16.8367Z" fill="#46463F" stroke="#363630" stroke-width="1.40303" stroke-miterlimit="3.99393" stroke-linecap="round"/>
<path d="M106.129 13.3991L102.315 15.601C102.048 15.755 101.957 16.0961 102.111 16.3629L103.356 18.5196C103.51 18.7863 103.851 18.8777 104.118 18.7237L107.932 16.5218C108.198 16.3678 108.29 16.0267 108.136 15.7599L106.891 13.6033C106.737 13.3365 106.396 13.2451 106.129 13.3991Z" fill="#46463F" stroke="#363630" stroke-width="1.40303" stroke-miterlimit="3.99393" stroke-linecap="round"/>
<path d="M91.7196 27.9047L90.2509 28.7527L88.9531 26.5049L90.2259 25.77C90.2259 25.77 90.8816 25.6851 91.4034 26.5888C91.9251 27.4925 91.7196 27.9047 91.7196 27.9047Z" fill="#97978C" stroke="#363630" stroke-width="1.40303" stroke-miterlimit="3.99393" stroke-linecap="round"/>
<path d="M1.75424 73.376C1.6769 73.2526 1.5966 73.1977 1.58093 73.3424C1.47641 74.2978 1.01037 76.8755 3.57019 79.3484C6.7081 82.3807 17.5235 92.4848 18.9109 94.446C19.0303 94.5755 19.6945 95.1823 21.2057 94.3098L21.4305 94.18C21.5201 94.1283 21.5355 94.004 21.4581 93.9332C19.6973 92.297 3.81042 76.6217 1.75424 73.376Z" fill="#464640" stroke="#353530" stroke-width="1.40303" stroke-miterlimit="3.99393" stroke-linecap="round"/>
<path d="M71.5897 28.8768L34.7715 50.1338L35.2713 50.9995L72.0895 29.7425L71.5897 28.8768Z" fill="#464640" stroke="#353530" stroke-width="0.701513" stroke-miterlimit="3.99393" stroke-linecap="round"/>
</g>
<defs>
<clipPath id="clip0_619_1196">
<rect width="110" height="110" fill="white"/>
</clipPath>
</defs>
</svg>
